X: 11088
T: SHANNON'S JIG
C: Bob McQuillen 24 Nov 99
B: Bob's Note Book 11 #88
R: jig
Z: 2019 John Chambers <jc:trillian.mit.edu>
M: 6/8
L: 1/8
K: D
A \
| dcB A2A | BAF A2A | FDF AFA | BAF EFA |\
| dcB AFA | BAF DFA | Bcd ADE | FDD D2 :|
|: E \
| FDF AFA | BAF A2A | FDF Ade | dBB B2A |\
| ABA FDF | Adf edB | BAF FDF | EDD D2 :|
%%begintext align
%% Don Primrose has a
%% lovely daughter named Shanon. They live in
%% Sullivan, NH, but they get over to Nelson on Monday
%% night for the dance. It's fun watching Shannon -
%% she really has a good time - see you soon, Shannon!
%%endtext

%%sep 1 1 500

%%sep 1 1 500

